apps/extension/src/ui/domains/Asset/currencyIcons/cny.svg

<svg width="32" height="32" viewBox="0 0 32 32" fill="none" xmlns="http://www.w3.org/2000/svg">
<g clip-path="url(#clip0_801_2276)">
<path d="M16.1123 31.5064C24.6141 31.5064 31.5062 24.6142 31.5062 16.1124C31.5062 7.61051 24.6141 0.718384 16.1123 0.718384C7.61039 0.718384 0.718262 7.61051 0.718262 16.1124C0.718262 24.6142 7.61039 31.5064 16.1123 31.5064Z" fill="#DC2E27" stroke="black" stroke-miterlimit="10"/>
<path d="M19.6968 8.60711L20.4643 9.88584L19.4849 11.011L20.9385 10.6765L21.7059 11.9551L21.8372 10.4695L23.2903 10.1349L21.918 9.55148L22.0485 8.06555L21.0696 9.19075L19.6968 8.60711Z" fill="#F7DC15"/>
<path d="M10.9818 9.95483L9.60044 14.2097H5.125L8.74474 16.8398L7.36257 21.0939L10.9828 18.465L14.6019 21.0935L13.2193 16.8403L16.8383 14.2089L12.3638 14.2101L10.9818 9.95483Z" fill="#F7DC15"/>
<path d="M24.4473 12.2175L24.6588 13.6933L23.3198 14.35L24.7888 14.6058L24.9997 16.0816L25.6973 14.7635L27.1662 15.0188L26.1276 13.949L26.8242 12.6305L25.4854 13.2877L24.4473 12.2175Z" fill="#F7DC15"/>
<path d="M21.97 22.4021L21.0386 23.5667L19.6428 23.0404L20.462 24.2864L19.5308 25.4506L20.9688 25.0565L21.7881 26.3016L21.8571 24.8128L23.2951 24.4177L21.9008 23.8919L21.97 22.4021Z" fill="#F7DC15"/>
<path d="M25.2773 18.1661L24.8678 19.6001L23.377 19.6536L24.6143 20.4865L24.2048 21.92L25.3791 21.0009L26.6162 21.833L26.1047 20.4328L27.2786 19.5127L25.7882 19.5665L25.2773 18.1661Z" fill="#F7DC15"/>
</g>
<defs>
<clipPath id="clip0_801_2276">
<rect width="32" height="32" fill="white"/>
</clipPath>
</defs>
</svg>

<svg viewBox="0 0 32 32" xmlns="http://www.w3.org/2000/svg">
    <clipPath id="a">
        <path d="M0 0h32v32H0z"/>
    </clipPath>
    <g clip-path="url(#a)">
        <path fill="#dc2e27" d="M16.112 31.506c8.502 0 15.394-6.892 15.394-15.394 0-8.501-6.892-15.394-15.394-15.394C7.61.718.718 7.611.718 16.112c0 8.502 6.892 15.394 15.394 15.394z"/>
        <path fill="#f7dc15" d="M19.697 8.607l.767 1.279-.98 1.125 1.454-.334.768 1.278.131-1.486 1.453-.334-1.372-.584.13-1.485-.978 1.125-1.373-.584z"/>
        <path fill="#f7dc15" d="M10.982 9.955L9.6 14.21H5.125l3.62 2.63-1.382 4.254 3.62-2.629 3.619 2.628-1.383-4.253 3.62-2.631-4.475.001-1.382-4.255z"/>
        <path fill="#f7dc15" d="M24.447 12.217l.212 1.476-1.34.657 1.47.256.21 1.476.698-1.319 1.47.256-1.04-1.07.697-1.318-1.339.657-1.038-1.07z"/>
        <path fill="#f7dc15" d="M21.97 22.402l-.931 1.165-1.396-.527.819 1.246-.931 1.165 1.438-.395.82 1.246.068-1.49 1.438-.394-1.394-.526.069-1.49z"/>
        <path fill="#f7dc15" d="M25.277 18.166l-.41 1.434-1.49.054 1.237.832-.41 1.434L25.38 21l1.237.833-.511-1.4 1.174-.92-1.49.053-.512-1.4z"/>
    </g>
</svg>
